X: 8836
T: Cuilcagh Mountains, The
R: reel
M: 4/4
K: Gmajor
A2 eA GEDE|G2 Bd efgb|bagb aged|BcBA GABG|
A2 eA GEDE|G2 Bd efgb|bagb aged|BcBG A2A2||
a2 ba gede|fgga gede|g2 ba gedB|AcBG EA A2|
a2 ba gedB|(3def gb a3b|(3c'ba gb agba|fgga gedB||

